X:4750
T:Of A' the Airts the Wind Can Blaw
T:Miss Admiral Gordon's Strathspey
O:england
N:adapted to 2/4 time for comparison
M:2/4
L:1/8
K:G
D|G>G G>G|G>D Ge|d>B AG|E3 D/E/|
G>G G>G|G>D Ge|d>e gB|d3 e|
d>e gB|d>B AG|A/ A B/ c/B/A/G/|E3 D/E|
G>GG>G|G>D Ge|d<B A>B|G3 |]
D/C/|B,>D G>D|E>D GA|Bd c/B/A/G/|E3 D/C/|
B,>D G>D|E>D GA|B>c d/e/f/g/|d3 e/f/|
g>f ed|e>d cB|A>B c/B/A/G/|E3 D/E/|
G>GG>G|G>D Ge|d<B A>B|G3 |]


